assets/images/iconFeelsLike.svg

<svg fill="none" height="38" viewBox="0 0 30 38" width="30" xmlns="http://www.w3.org/2000/svg" xmlns:xlink="http://www.w3.org/1999/xlink"><filter id="a" color-interpolation-filters="sRGB" filterUnits="userSpaceOnUse" height="38" width="38" x="-4" y="0"><feFlood flood-opacity="0" result="BackgroundImageFix"/><feColorMatrix in="SourceAlpha" result="hardAlpha" type="matrix" values="0 0 0 0 0 0 0 0 0 0 0 0 0 0 0 0 0 0 127 0"/><feOffset dy="4"/><feGaussianBlur stdDeviation="2"/><feComposite in2="hardAlpha" operator="out"/><feColorMatrix type="matrix" values="0 0 0 0 0 0 0 0 0 0 0 0 0 0 0 0 0 0 0.25 0"/><feBlend in2="BackgroundImageFix" mode="normal" result="effect1_dropShadow_2275_1598"/><feBlend in="SourceGraphic" in2="effect1_dropShadow_2275_1598" mode="normal" result="shape"/></filter><g fill="#fff" filter="url(#a)"><path d="m20.5 16.9097v-11.90972c0-2.76141-2.2386-4.99998-5-4.99998s-5 2.23857-5 4.99998v11.90972c-1.53437 1.3733-2.5 3.3691-2.5 5.5903 0 4.1422 3.3579 7.5 7.5 7.5s7.5-3.3578 7.5-7.5c0-2.2212-.9656-4.217-2.5-5.5903zm-5 10.5903c-2.7614 0-5-2.2386-5-5 0-1.4436.6118-2.7827 1.6673-3.7274l.8327-.7454v-13.02722c0-1.3807 1.1194-2.50002 2.5001-2.50002s2.5 1.11926 2.5 2.50002v13.02722l.8327.7454c1.0555.9447 1.6673 2.2838 1.6673 3.7274-.0001 2.7614-2.2387 5-5.0001 5z"/><path d="m16.4375 19.6875v-14.0625c0-.51777-.4197-.9375-.9375-.9375s-.9375.41973-.9375.9375v14.0625z"/><path d="m15.5 26.25c2.0711 0 3.75-1.6789 3.75-3.75s-1.6789-3.75-3.75-3.75-3.75 1.6789-3.75 3.75 1.6789 3.75 3.75 3.75z"/></g></svg>

<svg width="30" height="38" viewBox="0 0 30 38" fill="none" xmlns="http://www.w3.org/2000/svg">
<g filter="url(#filter0_d_2275_1598)">
<path d="M20.5 16.9097V4.99998C20.5 2.23857 18.2614 0 15.5 0C12.7386 0 10.5 2.23857 10.5 4.99998V16.9097C8.96563 18.283 8 20.2788 8 22.5C8 26.6422 11.3579 30 15.5 30C19.6421 30 23 26.6422 23 22.5C23 20.2788 22.0344 18.283 20.5 16.9097ZM15.5 27.5C12.7386 27.5 10.5 25.2614 10.5 22.5C10.5 21.0564 11.1118 19.7173 12.1673 18.7726L13 18.0272V4.99998C13 3.61928 14.1194 2.49996 15.5001 2.49996C16.8808 2.49996 18.0001 3.61922 18.0001 4.99998V18.0272L18.8328 18.7726C19.8883 19.7173 20.5001 21.0564 20.5001 22.5C20.5 25.2614 18.2614 27.5 15.5 27.5Z" fill="white"/>
<path d="M16.4375 19.6875V5.625C16.4375 5.10723 16.0178 4.6875 15.5 4.6875C14.9822 4.6875 14.5625 5.10723 14.5625 5.625V19.6875H16.4375Z" fill="white"/>
<path d="M15.5 26.25C17.5711 26.25 19.25 24.5711 19.25 22.5C19.25 20.4289 17.5711 18.75 15.5 18.75C13.4289 18.75 11.75 20.4289 11.75 22.5C11.75 24.5711 13.4289 26.25 15.5 26.25Z" fill="white"/>
</g>
<defs>
<filter id="filter0_d_2275_1598" x="-4" y="0" width="38" height="38" filterUnits="userSpaceOnUse" color-interpolation-filters="sRGB">
<feFlood flood-opacity="0" result="BackgroundImageFix"/>
<feColorMatrix in="SourceAlpha" type="matrix" values="0 0 0 0 0 0 0 0 0 0 0 0 0 0 0 0 0 0 127 0" result="hardAlpha"/>
<feOffset dy="4"/>
<feGaussianBlur stdDeviation="2"/>
<feComposite in2="hardAlpha" operator="out"/>
<feColorMatrix type="matrix" values="0 0 0 0 0 0 0 0 0 0 0 0 0 0 0 0 0 0 0.25 0"/>
<feBlend mode="normal" in2="BackgroundImageFix" result="effect1_dropShadow_2275_1598"/>
<feBlend mode="normal" in="SourceGraphic" in2="effect1_dropShadow_2275_1598" result="shape"/>
</filter>
</defs>
</svg>
